src/_assets/_icons/_figma/icon-contact.svg

<svg width="24" height="24" fill="none" xmlns="http://www.w3.org/2000/svg"><mask id="a" maskUnits="userSpaceOnUse" x="3" y="3" width="18" height="18" fill="#000"><path fill="#fff" d="M3 3H21V21H3z"/><path fill-rule="evenodd" clip-rule="evenodd" d="M4.617 19.924A1 1 0 0 1 4 19v-8c0-.327.09-.794.388-1.21C4.724 9.326 5.274 9 6 9h7c.327 0 .794.09 1.21.388.465.336.79.886.79 1.612v5c0 .327-.09.794-.389 1.21-.335.465-.885.79-1.611.79H7.414l-1.707 1.707a1 1 0 0 1-1.09.217zM7 17h6c.8 0 1-.667 1-1v-5c0-.8-.667-1-1-1H6c-.8 0-1 .667-1 1v8l2-2z"/><path d="M5 11v8l2-2h6c.8 0 1-.667 1-1v-5c0-.8-.667-1-1-1H6c-.8 0-1 .667-1 1z"/><path fill-rule="evenodd" clip-rule="evenodd" d="M19.383 14.924A1 1 0 0 0 20 14V6c0-.327-.09-.794-.389-1.21C19.276 4.326 18.726 4 18 4h-7c-.327 0-.794.09-1.21.388C9.326 4.724 9 5.274 9 6v5c0 .327.09.794.388 1.21.336.465.886.79 1.612.79h5.586l1.707 1.707a1 1 0 0 0 1.09.217zM17 12h-6c-.8 0-1-.667-1-1V6c0-.8.667-1 1-1h7c.8 0 1 .667 1 1v8l-2-2z"/><path d="M19 6v8l-2-2h-6c-.8 0-1-.667-1-1V6c0-.8.667-1 1-1h7c.8 0 1 .667 1 1z"/></mask><path fill-rule="evenodd" clip-rule="evenodd" d="M4.617 19.924A1 1 0 0 1 4 19v-8c0-.327.09-.794.388-1.21C4.724 9.326 5.274 9 6 9h7c.327 0 .794.09 1.21.388.465.336.79.886.79 1.612v5c0 .327-.09.794-.389 1.21-.335.465-.885.79-1.611.79H7.414l-1.707 1.707a1 1 0 0 1-1.09.217zM7 17h6c.8 0 1-.667 1-1v-5c0-.8-.667-1-1-1H6c-.8 0-1 .667-1 1v8l2-2z" fill="#0E7490"/><path d="M5 11v8l2-2h6c.8 0 1-.667 1-1v-5c0-.8-.667-1-1-1H6c-.8 0-1 .667-1 1z" fill="#CFFAFE"/><path fill-rule="evenodd" clip-rule="evenodd" d="M19.383 14.924A1 1 0 0 0 20 14V6c0-.327-.09-.794-.389-1.21C19.276 4.326 18.726 4 18 4h-7c-.327 0-.794.09-1.21.388C9.326 4.724 9 5.274 9 6v5c0 .327.09.794.388 1.21.336.465.886.79 1.612.79h5.586l1.707 1.707a1 1 0 0 0 1.09.217zM17 12h-6c-.8 0-1-.667-1-1V6c0-.8.667-1 1-1h7c.8 0 1 .667 1 1v8l-2-2z" fill="#0E7490"/><path d="M19 6v8l-2-2h-6c-.8 0-1-.667-1-1V6c0-.8.667-1 1-1h7c.8 0 1 .667 1 1z" fill="#CFFAFE"/><path d="M7 17v-.5a.5.5 0 0 0-.354.146L7 17zm-2 2h-.5a.5.5 0 0 0 .854.354L5 19zm12-7l.354-.354A.5.5 0 0 0 17 11.5v.5zm2 2l-.354.354A.5.5 0 0 0 19.5 14H19zM7 17.5h6v-1H7v1zm6 0c.563 0 .963-.246 1.206-.583.224-.311.294-.67.294-.917h-1c0 .087-.03.228-.106.333-.057.08-.157.167-.394.167v1zm1.5-1.5v-5h-1v5h1zm0-5c0-.563-.246-.963-.583-1.206A1.617 1.617 0 0 0 13 9.5v1c.087 0 .228.03.333.106.08.057.167.157.167.394h1zM13 9.5H6v1h7v-1zm-7 0c-.563 0-.963.246-1.206.583-.224.311-.294.67-.294.917h1c0-.087.03-.228.106-.333.057-.08.157-.167.394-.167v-1zM4.5 11v8h1v-8h-1zm.854 8.354l2-2-.708-.708-2 2 .708.708zM17 11.5h-6v1h6v-1zm-6 0c-.237 0-.337-.088-.394-.167A.618.618 0 0 1 10.5 11h-1c0 .247.07.606.294.917.243.337.643.583 1.206.583v-1zm-.5-.5V6h-1v5h1zm0-5c0-.237.088-.337.167-.394A.619.619 0 0 1 11 5.5v-1c-.247 0-.606.07-.917.294C9.746 5.037 9.5 5.437 9.5 6h1zm.5-.5h7v-1h-7v1zm7 0c.237 0 .337.088.394.167A.619.619 0 0 1 18.5 6h1c0-.247-.07-.606-.294-.917-.243-.337-.643-.583-1.206-.583v1zm.5.5v8h1V6h-1zm.854 7.646l-2-2-.708.708 2 2 .708-.708zM4.617 19.924L5 19l-.383.924zM4.388 9.79l-.811-.585.811.585zm9.821-.403l.585-.811-.585.811zm.402 7.821l-.811-.584.811.584zM7.414 18v-1a1 1 0 0 0-.707.293l.707.707zm-1.707 1.707L5 19l.707.707zm13.676-4.783L19 14l.383.924zm.229-10.133l.811-.585-.811.585zM9.79 4.388l-.585-.811.585.811zm-.403 7.821l.812-.584-.812.584zm7.198.791l.707-.707a1 1 0 0 0-.707-.293v1zm1.707 1.707L19 14l-.707.707zM3 19a2 2 0 0 0 1.235 1.848L5 19H3zm0-8v8h2v-8H3zm.577-1.794A3.116 3.116 0 0 0 3 11h2c0-.168.05-.417.2-.625L3.577 9.206zM6 8c-1.052 0-1.902.483-2.423 1.206L5.2 10.375c.15-.209.4-.375.8-.375V8zm7 0H6v2h7V8zm1.794.577A3.116 3.116 0 0 0 13 8v2c.168 0 .417.05.625.2l1.169-1.623zM16 11c0-1.052-.483-1.902-1.206-2.423L13.625 10.2c.209.15.375.4.375.8h2zm0 5v-5h-2v5h2zm-.577 1.794A3.116 3.116 0 0 0 16 16h-2c0 .168-.05.417-.2.625l1.623 1.169zM13 19c1.052 0 1.902-.483 2.423-1.206L13.8 16.625c-.15.209-.4.375-.8.375v2zm-5.586 0H13v-2H7.414v2zm-1 1.414l1.707-1.707-1.414-1.414L5 19l1.414 1.414zm-2.18.434a2 2 0 0 0 2.18-.434L5 19l-.765 1.848zM19 14l.765 1.848A2 2 0 0 0 21 14h-2zm0-8v8h2V6h-2zm-.2-.625c.15.208.2.458.2.625h2c0-.486-.13-1.172-.577-1.794L18.8 5.375zM18 5c.4 0 .65.167.8.375l1.623-1.169C19.903 3.483 19.052 3 18 3v2zm-7 0h7V3h-7v2zm-.625.2c.208-.15.457-.2.625-.2V3c-.486 0-1.172.13-1.794.577L10.375 5.2zM10 6c0-.4.166-.65.375-.8L9.206 3.577C8.483 4.097 8 4.948 8 6h2zm0 5V6H8v5h2zm.2.625c-.15-.208-.2-.457-.2-.625H8c0 .486.13 1.172.577 1.794l1.623-1.169zM11 12c-.4 0-.65-.166-.8-.375l-1.623 1.169C9.097 13.517 9.948 14 11 14v-2zm5.586 0H11v2h5.586v-2zM19 14l-1.707-1.707-1.414 1.414 1.707 1.707L19 14zm0 0l-1.414 1.414a2 2 0 0 0 2.18.434L19 14z" fill="#fff" mask="url(#a)"/></svg>

<?xml version="1.0" encoding="utf-8"?>
<!-- Generator: Adobe Illustrator 27.6.1, SVG Export Plug-In . SVG Version: 6.00 Build 0)  -->
<svg version="1.1" id="Layer_1" xmlns="http://www.w3.org/2000/svg" xmlns:xlink="http://www.w3.org/1999/xlink" x="0px" y="0px"
	 viewBox="0 0 24 24" style="enable-background:new 0 0 24 24;" xml:space="preserve">
<style type="text/css">
	.st0{fill-rule:evenodd;clip-rule:evenodd;fill:#0E7490;}
	.st1{fill:#CFFAFE;}
	.st2{fill:#FFFFFF;filter:url(#Adobe_OpacityMaskFilter);}
	.st3{fill-rule:evenodd;clip-rule:evenodd;}
	.st4{mask:url(#a_00000067231716942099018520000008675051565664745883_);fill:#FFFFFF;}
</style>
<path class="st0" d="M4.6,19.9C4.2,19.8,4,19.4,4,19v-8c0-0.3,0.1-0.8,0.4-1.2C4.7,9.3,5.3,9,6,9h7c0.3,0,0.8,0.1,1.2,0.4
	C14.7,9.7,15,10.3,15,11v5c0,0.3-0.1,0.8-0.4,1.2C14.3,17.7,13.7,18,13,18H7.4l-1.7,1.7C5.4,20,5,20.1,4.6,19.9z M7,17h6
	c0.8,0,1-0.7,1-1v-5c0-0.8-0.7-1-1-1H6c-0.8,0-1,0.7-1,1v8L7,17z"/>
<path class="st1" d="M5,11v8l2-2h6c0.8,0,1-0.7,1-1v-5c0-0.8-0.7-1-1-1H6C5.2,10,5,10.7,5,11z"/>
<path class="st0" d="M19.4,14.9c0.4-0.2,0.6-0.5,0.6-0.9V6c0-0.3-0.1-0.8-0.4-1.2C19.3,4.3,18.7,4,18,4h-7c-0.3,0-0.8,0.1-1.2,0.4
	C9.3,4.7,9,5.3,9,6v5c0,0.3,0.1,0.8,0.4,1.2C9.7,12.7,10.3,13,11,13h5.6l1.7,1.7C18.6,15,19,15.1,19.4,14.9z M17,12h-6
	c-0.8,0-1-0.7-1-1V6c0-0.8,0.7-1,1-1h7c0.8,0,1,0.7,1,1v8L17,12z"/>
<path class="st1" d="M19,6v8l-2-2h-6c-0.8,0-1-0.7-1-1V6c0-0.8,0.7-1,1-1h7C18.8,5,19,5.7,19,6z"/>
<defs>
	<filter id="Adobe_OpacityMaskFilter" filterUnits="userSpaceOnUse" x="3" y="3" width="18" height="18">
		<feColorMatrix  type="matrix" values="1 0 0 0 0  0 1 0 0 0  0 0 1 0 0  0 0 0 1 0"/>
	</filter>
</defs>
<mask maskUnits="userSpaceOnUse" x="3" y="3" width="18" height="18" id="a_00000067231716942099018520000008675051565664745883_">
	<path class="st2" d="M3,3h18v18H3V3z"/>
	<path class="st3" d="M4.6,19.9C4.2,19.8,4,19.4,4,19v-8c0-0.3,0.1-0.8,0.4-1.2C4.7,9.3,5.3,9,6,9h7c0.3,0,0.8,0.1,1.2,0.4
		C14.7,9.7,15,10.3,15,11v5c0,0.3-0.1,0.8-0.4,1.2C14.3,17.7,13.7,18,13,18H7.4l-1.7,1.7C5.4,20,5,20.1,4.6,19.9z M7,17h6
		c0.8,0,1-0.7,1-1v-5c0-0.8-0.7-1-1-1H6c-0.8,0-1,0.7-1,1v8L7,17z"/>
	<path d="M5,11v8l2-2h6c0.8,0,1-0.7,1-1v-5c0-0.8-0.7-1-1-1H6C5.2,10,5,10.7,5,11z"/>
	<path class="st3" d="M19.4,14.9c0.4-0.2,0.6-0.5,0.6-0.9V6c0-0.3-0.1-0.8-0.4-1.2C19.3,4.3,18.7,4,18,4h-7c-0.3,0-0.8,0.1-1.2,0.4
		C9.3,4.7,9,5.3,9,6v5c0,0.3,0.1,0.8,0.4,1.2C9.7,12.7,10.3,13,11,13h5.6l1.7,1.7C18.6,15,19,15.1,19.4,14.9z M17,12h-6
		c-0.8,0-1-0.7-1-1V6c0-0.8,0.7-1,1-1h7c0.8,0,1,0.7,1,1v8L17,12z"/>
	<path d="M19,6v8l-2-2h-6c-0.8,0-1-0.7-1-1V6c0-0.8,0.7-1,1-1h7C18.8,5,19,5.7,19,6z"/>
</mask>
<path class="st4" d="M7,17v-0.5c-0.1,0-0.3,0.1-0.4,0.1L7,17z M5,19H4.5c0,0.3,0.2,0.5,0.5,0.5c0.1,0,0.3-0.1,0.4-0.1L5,19z M17,12
	l0.4-0.4c-0.1-0.1-0.2-0.1-0.4-0.1V12z M19,14l-0.4,0.4c0.2,0.2,0.5,0.2,0.7,0c0.1-0.1,0.1-0.2,0.1-0.4H19z M7,17.5h6v-1H7V17.5z
	 M13,17.5c0.6,0,1-0.2,1.2-0.6c0.2-0.3,0.3-0.7,0.3-0.9h-1c0,0.1,0,0.2-0.1,0.3c-0.1,0.1-0.2,0.2-0.4,0.2V17.5z M14.5,16v-5h-1v5
	H14.5z M14.5,11c0-0.6-0.2-1-0.6-1.2c-0.3-0.2-0.6-0.3-0.9-0.3v1c0.1,0,0.2,0,0.3,0.1c0.1,0.1,0.2,0.2,0.2,0.4H14.5z M13,9.5H6v1h7
	V9.5z M6,9.5c-0.6,0-1,0.2-1.2,0.6c-0.2,0.3-0.3,0.7-0.3,0.9h1c0-0.1,0-0.2,0.1-0.3c0.1-0.1,0.2-0.2,0.4-0.2V9.5z M4.5,11v8h1v-8
	H4.5z M5.4,19.4l2-2l-0.7-0.7l-2,2L5.4,19.4z M17,11.5h-6v1h6V11.5z M11,11.5c-0.2,0-0.3-0.1-0.4-0.2c-0.1-0.1-0.1-0.2-0.1-0.3h-1
	c0,0.2,0.1,0.6,0.3,0.9c0.2,0.3,0.6,0.6,1.2,0.6V11.5z M10.5,11V6h-1v5H10.5z M10.5,6c0-0.2,0.1-0.3,0.2-0.4
	c0.1-0.1,0.2-0.1,0.3-0.1v-1c-0.2,0-0.6,0.1-0.9,0.3C9.7,5,9.5,5.4,9.5,6H10.5z M11,5.5h7v-1h-7V5.5z M18,5.5c0.2,0,0.3,0.1,0.4,0.2
	c0.1,0.1,0.1,0.2,0.1,0.3h1c0-0.2-0.1-0.6-0.3-0.9C19,4.7,18.6,4.5,18,4.5V5.5z M18.5,6v8h1V6H18.5z M19.4,13.6l-2-2l-0.7,0.7l2,2
	L19.4,13.6z M4.6,19.9L5,19L4.6,19.9z M4.4,9.8L3.6,9.2L4.4,9.8z M14.2,9.4l0.6-0.8L14.2,9.4z M14.6,17.2l-0.8-0.6L14.6,17.2z
	 M7.4,18v-1c-0.3,0-0.5,0.1-0.7,0.3C6.7,17.3,7.4,18,7.4,18z M5.7,19.7L5,19L5.7,19.7z M19.4,14.9L19,14C19,14,19.4,14.9,19.4,14.9z
	 M19.6,4.8l0.8-0.6L19.6,4.8z M9.8,4.4L9.2,3.6L9.8,4.4z M9.4,12.2l0.8-0.6L9.4,12.2z M16.6,13l0.7-0.7c-0.2-0.2-0.4-0.3-0.7-0.3V13
	z M18.3,14.7L19,14L18.3,14.7L18.3,14.7z M3,19c0,0.8,0.5,1.5,1.2,1.8L5,19H3z M3,11v8h2v-8H3z M3.6,9.2C3.2,9.7,3,10.4,3,11h2
	c0-0.2,0.1-0.4,0.2-0.6C5.2,10.4,3.6,9.2,3.6,9.2z M6,8C4.9,8,4.1,8.5,3.6,9.2l1.6,1.2C5.3,10.2,5.6,10,6,10V8z M13,8H6v2h7V8z
	 M14.8,8.6C14.3,8.2,13.6,8,13,8v2c0.2,0,0.4,0.1,0.6,0.2L14.8,8.6z M16,11c0-1.1-0.5-1.9-1.2-2.4l-1.2,1.6c0.2,0.1,0.4,0.4,0.4,0.8
	H16z M16,16v-5h-2v5H16z M15.4,17.8c0.4-0.5,0.6-1.2,0.6-1.8h-2c0,0.2-0.1,0.4-0.2,0.6L15.4,17.8z M13,19c1.1,0,1.9-0.5,2.4-1.2
	l-1.6-1.2C13.7,16.8,13.4,17,13,17V19z M7.4,19H13v-2H7.4V19z M6.4,20.4l1.7-1.7l-1.4-1.4L5,19L6.4,20.4z M4.2,20.8
	C5,21.2,5.8,21,6.4,20.4L5,19L4.2,20.8L4.2,20.8z M19,14l0.8,1.8c0.7-0.3,1.2-1,1.2-1.8H19z M19,6v8h2V6H19z M18.8,5.4
	C18.9,5.6,19,5.8,19,6h2c0-0.5-0.1-1.2-0.6-1.8L18.8,5.4z M18,5c0.4,0,0.6,0.2,0.8,0.4l1.6-1.2C19.9,3.5,19.1,3,18,3V5z M11,5h7V3
	h-7V5z M10.4,5.2C10.6,5,10.8,5,11,5V3c-0.5,0-1.2,0.1-1.8,0.6L10.4,5.2z M10,6c0-0.4,0.2-0.7,0.4-0.8L9.2,3.6C8.5,4.1,8,4.9,8,6H10
	z M10,11V6H8v5H10z M10.2,11.6C10.1,11.4,10,11.2,10,11H8c0,0.5,0.1,1.2,0.6,1.8L10.2,11.6z M11,12c-0.4,0-0.6-0.2-0.8-0.4l-1.6,1.2
	C9.1,13.5,9.9,14,11,14V12z M16.6,12H11v2h5.6V12z M19,14l-1.7-1.7l-1.4,1.4l1.7,1.7L19,14z M19,14l-1.4,1.4
	c0.6,0.6,1.4,0.7,2.2,0.4L19,14z"/>
</svg>
